X:1
T:Forgive blessed shade, the tributary tear
T:John Wall Callcott (1766-1821) Accompaniment added by William Horsley (1774-1858)
T:From an epitaph in a graveyard at Brading, Hampshire, England. Said to have been written by the local rector, Lee (or Leigh) Richmond
T:Forgive blessed shade, the tributary tear
T:Copyright © 
T:Copyright © 
T:Copyright © 
C:John Wall Callcott (1766-1821)
C:Accompaniment added by William Horsley (1774-1858)
Z:From an epitaph in a graveyard at
Z:Brading, Hampshire, England.
Z:Said to have been written by the
Z:local rector, Lee (or Leigh) Richmond
Z:Copyright ©
%%score [ 1 2 3 ] { ( 4 6 ) | 5 }
L:1/8
Q:1/4=80
M:2/4
K:D
V:1 treble nm="Treble" snm="Tr."
V:2 treble nm="Treble" snm="Tr."
V:3 bass nm="Bass" snm="B."
V:4 treble nm="Piano" snm="Pno."
V:6 treble 
V:5 bass 
V:1
"^espressivo""^Moderately slow" D | D2 (E>F) | F2 z A | AG FE | !>!B2 z A | G2 F2 | dc BA | G2 F2 | %8
w: For-|give bless'd _|shade, the|tri- bu- ta- ry|tear, That|mourns thy|ex- it from a|world like|
 E2 z F | F2 (G>A) | A2 z A | GF BA | !>!c2 z c | d2 e2 | fd AB | F2 E2 | D2 z ::"^cresc." c | %18
w: this, For-|give the _|wish that|would have kept thee|here, And|stayed thy|pro- gress to the|seats of|bliss.|No|
 c2 c2 | B2 z B | A (B/A/) ^GF | E2 z e | d2 B2 | ce d (f/d/) | c2 B2 | A2 z2 |!pp!!pp! A2 GF | %27
w: more con-|fined to|grov'- ling _ scenes of|night, No|more a|te- nant pent in _|mor- tal|clay,|Now should we|
"^cresc." B2 A2 | cd ef | .g2 z!p! G |"^cresc." (FG) (AB) | cd Be | d2 c2 | d2 z2 | z f eg | %35
w: ra- ther|hail thy glo- rious|flight, And|trace _ thy _|jour- ney to the|realms of|day,|And trace thy|
 fd e (f/g/) |"^dim." f2 e2 | d2 z2 :| %38
w: jour- ney to the _|realms of|day.|
V:2
"^espressivo" D | D2 (C>D) | D2 z F | FE DC | !>!G2 z F | E2 D2 | BA GF | E2 D2 | C2 z D | %9
w: For-|give bless'd _|shade, the|tri- bu- ta- ry|tear, That|mourns thy|ex- it from a|world like|this, For-|
 D2 (E>F) | F2 z F | ED GF | !>!G2 z G | F2 A2 | dA FG | D2 C2 | D2 z ::"^cresc." A | A2 A2 | %19
w: give the _|wish that|would have kept thee|here, And|stayed thy|pro- gress to the|seats of|bliss.|No|more con-|
 ^G2 z G | F (^G/F/) ED | C2 z c | B2 ^G2 | Ac B (d/B/) | A2 ^G2 | A2 z2 | F2 ED |"^cresc." G2 F2 | %28
w: fined to|grov'- ling _ scenes of|night, No|more a|te- nant pent in _|mor- tal|clay,|Now should we|ra- ther|
 AA cd | .e2 z!p! E |"^cresc." (DE) (FG) | GA BG | F2 D2 | F2 z2 | z d ce | dA Bd |"^dim." d2 c2 | %37
w: hail thy glo- rious|flight, And|trace _ thy _|jour- ney to the|realms of|day,|And trace thy|jour- ney to the|realms of|
 d2 z2 :| %38
w: day.|
V:3
"^espressivo" D, | D,2 A,,2 | D,2 z D, | A,A, A,A, | !>!C,2 z D, | A,,2 B,,2 | G,,G, G,D, | %7
w: For-|give bless'd|shade, the|tri- bu- ta- ry|tear, That|mourns thy|ex- it from a|
 C,2 D,2 | A,,2 z D, | D,2 D,2 | D,2 z D, | C,D, D,D, | !>!E,2 z A,, | D,2 C,2 | D,D, D,G,, | %15
w: world like|this, For-|give the|wish that|would have kept thee|here, And|stayed thy|pro- gress to the|
 A,,2 A,,2 | D,2 z :: A, | A,2 A,,2 | E,2 z E, | F,F, C,D, | A,,2 z2 | z E, ^G,E, | A,A, D,D, | %24
w: seats of|bliss.|No|more con-|fined to|grov' ling scenes of|night,|No more a|te- nant pent in|
 E,2 E,2 | A,,2 z2 |!pp! D,2 C,D, |"^cresc." G,,2 D,2 | G,F, E,D, | .C,2 z!p! C, | %30
w: mor- tal|clay,|Now should we|ra- ther|hail thy glo- rious|flight, And|
"^cresc." D,3 G, | E,F, G,E, | A,2 A,,2 | D,D, F,A, | DD, z A, | DF, G, (F,/E,/) | %36
w: trace thy|jour- ney to the|realms of|day, And trace thy|jour- ney, thy|jour- ney to the _|
"^dim." A,2 A,,2 | D,2 z2 :| %38
w: realms of|day.|
V:4
!pp! D | D2 ([CE]>[DF]) | [DF]2 z [FA] | ([FA][EG][DF][CE]) | !>![GB]2 z [FA] | [EG]2 [DF]2 | %6
 ([Bd][Ac][GB][FA]) | [EG]2 [DF]2 | [CE]2 z [DF] | [DF]2 ([EG]>[FA]) | [FA]2 z [FA] | %11
 ([EG][DF][GB][FA]) | !>![Gc]2 z [Gc] | [Fd]2 [Ae]2 | ([df][Ad][FA][GB]) | [DF]2 [CE]2 | D2 z :: %17
"^cresc.""^cresc." [Ac] | [Ac]2 [Ac]2 | [^GB]2 z [GB] | [FA]([^GB]/[FA]/) [EG][DF] | [CE]2 z [ce] | %22
 [Bd]2 [^GB]2 | ([Ac][ce] [Bd])([df]/[Bd]/) | [Ac]2 [^GB]2 | A2 z2 |!pp! [FA]2 ([EG][DF]) | %27
"^cresc." [GB]2 [FA]2 | ([Ac][Ad][ce][df]) | .[eg]2 z!p! [EG] |"^cresc." ([DF][EG][FA][GB]) | %31
 ([Gc][Ad]B[Ge]) | [Fd]2 [Ec]2 | [Fd]2 z2 | z ([df][ce][eg]) | fd e(f/g/) | [df]2"^dim." [ce]2 | %37
 d2 z2 :| %38
V:5
 D, | D,2 A,,2 | D,2 z D, | A,2 A,2 | C,2 z D, | A,,2 B,,2 | G,,G,G,D, | C,2 D,2 | A,,2 z D, | %9
 D,2 D,2 | D,2 z D, | C,D, D,2 | E,2 z A,, | D,2 C,2 | D,2 D,G,, | A,,2 A,,2 | D,2 z :: A, | %18
 A,2 A,,2 | E,2 z E, | F,F,C,D, | A,,2 z2 | z E,^G,E, | A,A, D,D, | E,2 E,2 | A,,2 z2 | D,2 C,D, | %27
 G,,2 D,2 | G,F,E,D, | .C,2 z C, | D,3 G, | E,F,G,E, | A,2 A,,2 | D,D,F,A, | DD, z A, | %35
 DF, G,F,/E,/ | A,2 A,,2 | D,2 z2 :| %38
V:6
 x | x4 | x4 | x4 | x4 | x4 | x4 | x4 | x4 | x4 | x4 | x4 | x4 | x4 | x4 | x4 | D2 x :: x | x4 | %19
 x4 | x4 | x4 | x4 | x4 | x4 | A2 x2 | x4 | x4 | x4 | x4 | x4 | x4 | x4 | x4 | x4 | dABd | x4 | %37
 d2 x2 :| %38

